!!!OTL: Der sich ein faules Gretchen nimmt (Band 1), S. 224
!!!id: P0855
**kern
*clefG2
*k[f#]
*G:
{8d
=1
8g
8b
8a
8f#
=2
8g
8e
8d}
=3
{8d
=4
8e
8e
8f#
8f#
=5
4g}
8r
=6
{8d
=7
8g
8b
8a
8f#
=8
8g
8e
8d}
=9
{8d
=10
8e
8e
16f#
8f#
16r
=11
4g}
8r
=12
{8d
=13
4g
8.dd
16cc
=14
8b
8b
8b
8b
=15
8b
8dd
4dd
=16
8b
8dd
4dd}
=17
{8.dd
16cc
8cc
8cc
=18
8ee
8dd
4b
=19
*M3/4
8a
8a
8b
16dd
16dd
8cc
8a
=20
4g}
8r
==
*-
!!!minrhy: 16
!!!meters: 2/4 3/4 ]  ZZ[6
!!!cut: Der sich ein faules Gretchen nimmt (Band 1), S. 224
!!!reg: Lothringen
!!!trd: PINCK, Louis: Verklingende Weisen, Bd 1, Metz 1928
!!!rhy1: X_  X_X_X_X_  X_X_X_   (x2)
!!!rhy2: X_  X_X_X_X_  X__0
!!!key: P0855  16  G 2/4 3/4 ]  ZZ[6
!!!mod: HEPTATONIK IONISCH]  AMBITUS[9
!!!kad: -51-5151
!!!akz: 11_-61_11_-61_1333_5621_
!!!fot: 'a__b__a__b__c__d__
!!!for: 'a__aw_a__b__c__d__
!!!fok: '^__/__^__/__~a_Sd_
!! PHRAS[VORWIEGEND AUFTAKTIG]
!!!fkt: Spottlied
!! LOTH VKL
!! PR[15] 2K[9] 2G[25] 3K[4] 3G[4] 4A[4] 4Ü[0] 5A[0] 6K[0] 6G[0]
!! 7K[0] 7G[0] 8A[0] MEHR[0] SI[45] ABS[55] SR[35] SP[11]
!! ST[14] 2k[5] 2g[24] 3k[7] 3g[2] 4d[0] 4ü[0] 5d[2] 6k[0] 6g[0]
!! 7k[0] 7g[0] 8d[0] mehr[0] si[40] dm[+5] sr[29] sp[11]
!! 1F[9] 2F[33] 3F[33] 4F[10] LF[0] 2P[2] 3P[12] 4P[2] TRI[2] DF[7] AB[58]
!! TF[0] U3K[0] U3[0] U4[0] U4Ü[0] U5[7] U6K[0] U6[2] U7K[0] U7[4]
!! N1[21] N2K[0] N2[20] N3K[0] N3[23] N4[9] N4Ü[0] N5[13] N6K[0] N6[2]
!!!n7k: 0] N7[0] O1[0] O2K[0] O2[0] O3K[0] O3[0] HÖ[0
